lib/functional/health&wellness/face-mask.svg

<svg xmlns="http://www.w3.org/2000/svg" fill="none" stroke="currentColor" aria-hidden="true" viewBox="0 0 32 32"><g id="Icon-FaceMask"><g clip-path="url(#clip0_12_4354)"><g id="size=md (32px)"><g id="FaceMask"><path id="Vector" stroke-linecap="round" stroke-linejoin="round" stroke-width="2" d="M27 17C27 23.4375 17.7 25.65 16.2 25.9625C16.0679 25.9876 15.9322 25.9876 15.8 25.9625C14.3 25.65 5.00001 23.4375 5.00001 17V9.70003C4.99897 9.49421 5.06226 9.29321 5.18104 9.12513C5.29982 8.95704 5.46816 8.83027 5.66251 8.76253L15.6625 5.12503C15.8812 5.04979 16.1188 5.04979 16.3375 5.12503L26.3375 8.76253C26.5319 8.83027 26.7002 8.95704 26.819 9.12513C26.9378 9.29321 27.0011 9.49421 27 9.70003V17Z"/><path id="Vector_2" stroke-linecap="round" stroke-linejoin="round" stroke-width="2" d="M11 14H21"/><path id="Vector_3" stroke-linecap="round" stroke-linejoin="round" stroke-width="2" d="M11 18H21"/><path id="Vector_4" stroke-linecap="round" stroke-linejoin="round" stroke-width="2" d="M26.6748 19H27.9998C28.3942 19.0017 28.7851 18.9252 29.1498 18.775C29.5145 18.6249 29.8459 18.4039 30.1248 18.125C30.4037 17.8461 30.6246 17.5148 30.7748 17.15C30.925 16.7853 31.0015 16.3945 30.9998 16V13C31.0015 12.6056 30.925 12.2147 30.7748 11.85C30.6246 11.4853 30.4037 11.1539 30.1248 10.875C29.8459 10.5961 29.5145 10.3752 29.1498 10.225C28.7851 10.0748 28.3942 9.99837 27.9998 10H26.9998"/><path id="Vector_5" stroke-linecap="round" stroke-linejoin="round" stroke-width="2" d="M5.32503 19H4.00003C3.6056 19.0017 3.21475 18.9252 2.85002 18.775C2.4853 18.6249 2.15392 18.4039 1.87502 18.125C1.59611 17.8461 1.3752 17.5148 1.22502 17.15C1.07484 16.7853 0.998372 16.3945 1.00003 16V13C0.998372 12.6056 1.07484 12.2147 1.22502 11.85C1.3752 11.4853 1.59611 11.1539 1.87502 10.875C2.15392 10.5961 2.4853 10.3752 2.85002 10.225C3.21475 10.0748 3.6056 9.99837 4.00003 10H5.00003"/></g></g></g></g><defs><clipPath id="clip0_12_4354"><rect width="32" height="32" fill="white" rx="5"/></clipPath></defs></svg>

<svg xmlns="http://www.w3.org/2000/svg" fill="none" stroke="currentColor" aria-hidden="true" viewBox="0 0 32 32"><g stroke="#101828" stroke-linecap="round" stroke-linejoin="round" stroke-width="2" clip-path="url(#a)"><path d="M27 17c0 6.438-9.3 8.65-10.8 8.962a1.072 1.072 0 0 1-.4 0C14.3 25.65 5 23.438 5 17V9.7a.988.988 0 0 1 .663-.937l10-3.638c.218-.075.456-.075.674 0l10 3.638A.987.987 0 0 1 27 9.7V17Zm-16-3h10m-10 4h10"/><path d="M26.675 19H28a2.986 2.986 0 0 0 3-3v-3a2.986 2.986 0 0 0-3-3h-1M5.325 19H4a2.986 2.986 0 0 1-3-3v-3a2.987 2.987 0 0 1 3-3h1"/></g><defs><clipPath id="a"><rect width="32" height="32" fill="#fff" rx="5"/></clipPath></defs></svg>
